packages/ui-icons/svg/Line/expand.svg

<svg viewBox="0 0 1920 1920" version="1.1" xmlns="http://www.w3.org/2000/svg">
    <path d="M1920,1694.17647 L1920,1807.11765 L0,1807.11765 L0,1694.17647 L1920,1694.17647 Z M1750.58824,113 C1843.99059,113 1920,189.009412 1920,282.411765 L1920,1468.29412 L1807.05882,1468.29412 L1807.05882,282.411765 C1807.05882,251.352941 1781.64706,225.941176 1750.58824,225.941176 L169.411765,225.941176 C138.352941,225.941176 112.941176,251.352941 112.941176,282.411765 L112.941176,1468.29412 L0,1468.29412 L0,282.411765 C0,189.009412 76.0094118,113 169.411765,113 L1750.58824,113 Z M960,484.915294 L1338.80471,863.607059 L1258.84235,943.569412 L1016.47059,701.084706 L1016.47059,1355.35294 L903.529412,1355.35294 L903.529412,701.084706 L661.157647,943.569412 L581.195294,863.607059 L960,484.915294 Z" stroke="none" stroke-width="1" fill-rule="evenodd"/>
</svg>

<svg viewBox="0 0 1920 1920" version="1.1" xmlns="http://www.w3.org/2000/svg">
    <path d="M1750.588 113C1843.991 113 1920 189.01 1920 282.412v1185.882h-112.941V282.412c0-31.06-25.412-56.47-56.47-56.47H169.411c-31.06 0-56.47 25.41-56.47 56.47v1185.882H0V282.412C0 189.009 76.01 113 169.412 113h1581.176zm-734.117 1242.353H903.529V701.085L661.158 943.569l-79.963-79.962L960 484.915l378.805 378.692-79.963 79.962-242.371-242.484v654.268zM0 1807.118v-112.942h1920v112.942H0z" stroke="none" stroke-width="1" fill-rule="evenodd"/>
</svg>
